www/assets/icons/60fps.svg

<svg xmlns="http://www.w3.org/2000/svg" width="24" height="24" viewBox="0 0 24 24" fill='currentColor'><path d="M19 8v8h-4V8zm0-3h-4c-1.66 0-3 1.34-3 3v8c0 1.66 1.34 3 3 3h4c1.66 0 3-1.34 3-3V8c0-1.66-1.34-3-3-3m-9 3V5H5C3.34 5 2 6.34 2 8v8c0 1.66 1.34 3 3 3h3c1.66 0 3-1.34 3-3v-3c0-1.66-1.34-3-3-3H5V8zm-2 5v3H5v-3z"/></svg>

<svg width="24" height="24" viewBox="0 0 24 24" xmlns="http://www.w3.org/2000/svg" fill='currentColor'><path d="M19 8V16H15V8H19ZM19 5H15C13.34 5 12 6.34 12 8V16C12 17.66 13.34 19 15 19H19C20.66 19 22 17.66 22 16V8C22 6.34 20.66 5 19 5ZM10 8V5H5C3.34 5 2 6.34 2 8V16C2 17.66 3.34 19 5 19H8C9.66 19 11 17.66 11 16V13C11 11.34 9.66 10 8 10H5V8H10ZM8 13V16H5V13H8Z"/></svg>
